X: 35715
T: Saint Ninian's Isle
R: reel
M: 4/4
K: Amajor
|:E2|A2 (cB) AECE|DCDF FECE|A2 (AB) cAdc|B2 B,2 B,2 E2|
A2 (cB) AECE|DCDF FECE|A2 (Bc) dBed|c2 A2 A2:|
(cd)|ecAc eaga|fgaf fece|A2 (AB) cAdc|B2 B,2 B,2 (cd)|
ecAc eaga|fgaf fece|A2 (Bc) dBed|c2 A2 A2 (cd)|
ecAc eaga|fgaf fece|A2 (AB) cAdc|B2 B,2 B,2 E2|
A2 (cB) AECE|DCDF FECE|A2 (Bc) dBed|c2 A2 A2||

